X: 24
T: On The Top Of Cork Road
B: begged borrowed and stolen
M:6/8
L:1/8
R: jig
Q: 3/8=100
K:Dmajor
V:1 
|:"D"dAF DFA|"G"ded "A"cBA|"G"dcd efg|"A"fdf ecA|
"D"dAF DFA|"G"ded "A"cBA|"D"dcd "A"efg| "D"fdd d3:|
|:"D"fdf fga|"A"ecd efg|"G"fdf fga|"A"ecA A2c|
"G"BGB Bcd|"D"AFADFA|"G"dcd "A"efg| "D"fdd d3:|
% abcbook-tune_id 62828a3ac3cd3e4c39c5c960


% abcbook-boost 0
% abcbook-tablature 
% abcbook-transpose 
% abcbook-lastupdated 1652725431057
% abcbook-soundfonts 
% abcbook-repeats 3
% abc-sessionorg_id 5018
% abc-sessionorg_setting 0
% abc-sessionorg_setting_id 31394
% abc-boost 0

